X:35
T: Kerfunten
C: Hammy Hamilton
Z: B.Black
R: jig
M: 6/8
L: 1/8
K: G
A | B3 BAG | dBd efg | dBd edB | ABA AGA |
B3 BAG | dBd efg | dBd gdB | AGA G2 :|
d | gfg gab | ege edB | gfg gab | bag a2 d |
gfg gab | ege edB | dBd gdB | AGA G2 :|
